src/assets/brands/storybook.svg

<svg xmlns="http://www.w3.org/2000/svg" xmlns:xlink="http://www.w3.org/1999/xlink" width="52" height="64" version="1.1" viewBox="0 0 52 64"><title>icon-storybook-default</title><defs><path id="path-1" d="M1.94279175,57.1309472 L0.0022554267,5.95476663 C-0.0618328758,4.26461814 1.24754196,2.83223697 2.95307926,2.72673418 L46.9330824,0.00617628491 C48.6691159,-0.10121296 50.1644074,1.2046298 50.2729096,2.92285771 C50.2769973,2.98759391 50.2790429,3.05244063 50.2790429,3.11730315 L50.2790429,58.8828028 C50.2790429,60.6043831 48.8689636,62 47.1295431,62 C47.0824212,62 47.0353056,61.9989534 46.9882313,61.9968606 L4.94876437,60.1280997 C3.31149338,60.0553189 2.00425692,58.751918 1.94279175,57.1309472 Z"/></defs><g id="icon-storybook-default" fill="none" fill-rule="evenodd" stroke="none" stroke-width="1"><g id="icon" transform="translate(1.000000, 1.000000)"><path id="Combined-Shape" fill="#FF4785" fill-rule="nonzero" d="M50.2729096,2.92285771 C50.2769973,2.98759391 50.2790429,3.05244063 50.2790429,3.11730315 L50.2790429,58.8828028 C50.2790429,60.6043831 48.8689636,62 47.1295431,62 C47.0824212,62 47.0353056,61.9989534 46.9882313,61.9968606 L4.94876437,60.1280997 C3.31149338,60.0553189 2.00425692,58.751918 1.94279175,57.1309472 L0.0022554267,5.95476663 C-0.0618328758,4.26461814 1.24754196,2.83223697 2.95307926,2.72673418 L37.427,0.594 L37.1272753,7.62078766 C37.1238721,7.70179664 37.1419373,7.78178731 37.179031,7.85305525 L37.2223772,7.92113026 C37.3791917,8.12573637 37.6738999,8.16578288 37.880626,8.0105767 L37.880626,8.0105767 L40.6382617,5.94019678 L42.9673936,7.75618537 C43.0546693,7.82423279 43.1634862,7.85946584 43.2745216,7.85562813 C43.5338374,7.84666553 43.7367132,7.6313391 43.7276576,7.37468316 L43.7276576,7.37468316 L43.467,0.22 L46.9330824,0.00617628491 C48.6691159,-0.10121296 50.1644074,1.2046298 50.2729096,2.92285771 Z"/><mask id="mask-2" fill="#fff"><use xlink:href="#path-1"/></mask><path id="S" fill="#FFF" fill-rule="nonzero" d="M29.4029796,23.368648 C29.4029796,24.58142 37.6567008,24.00017 38.7646901,23.1482813 C38.7646901,14.8895929 34.2873503,10.5497821 26.0885852,10.5497821 C17.88982,10.5497821 13.2961856,14.9571143 13.2961856,21.5681161 C13.2961856,33.0822778 28.9959487,33.3026444 28.9959487,39.5830962 C28.9959487,41.3460299 28.1237396,42.3927719 26.2048797,42.3927719 C23.7045471,42.3927719 22.7160434,41.1289316 22.832338,36.8317805 C22.832338,35.8995698 13.2961856,35.6089448 13.0054493,36.8317805 C12.2651161,47.2453073 18.8201763,50.248968 26.3211742,50.248968 C33.5895831,50.248968 39.2880157,46.4144645 39.2880157,39.4729126 C39.2880157,27.132376 23.3556634,27.4629261 23.3556634,21.3477494 C23.3556634,18.8686237 25.2163761,18.5380737 26.3211742,18.5380737 C27.4841196,18.5380737 29.5774214,18.7409467 29.4029796,23.368648 Z" mask="url(#mask-2)"/><path id="bookmark" fill="#FFF" fill-rule="nonzero" d="M37.1272753,7.62078766 L37.4276823,0.591583333 L43.4674595,0.218291667 L43.7276576,7.37468316 C43.7367132,7.6313391 43.5338374,7.84666553 43.2745216,7.85562813 C43.1634862,7.85946584 43.0546693,7.82423279 42.9673936,7.75618537 L40.6382617,5.94019678 L37.880626,8.0105767 C37.6738999,8.16578288 37.3791917,8.12573637 37.2223772,7.92113026 C37.1563661,7.83500129 37.1227378,7.72879963 37.1272753,7.62078766 Z" mask="url(#mask-2)"/></g></g></svg>

<svg xmlns="http://www.w3.org/2000/svg" xmlns:xlink="http://www.w3.org/1999/xlink" viewBox="0 0 50.27904 62"><defs><mask id="a79871bc-3bf5-49b1-8dae-35d17e4d3766" x="0" y="0" width="50.27904" height="62" maskUnits="userSpaceOnUse"><g id="fe363119-06f5-4529-95e6-3b2fd4c871e5" data-name="mask-2"><path id="b7b995ac-8c43-49c8-9399-b095057801bc" data-name="path-1" d="M1.94279,57.131.00226,5.95477a3.12956,3.12956,0,0,1,2.95082-3.228l43.98-2.72055a3.13833,3.13833,0,0,1,3.33983,2.91668q.00613.09709.00613.19444V58.8828A3.13347,3.13347,0,0,1,47.12954,62q-.07068,0-.14131-.00314L4.94876,60.1281A3.13319,3.13319,0,0,1,1.94279,57.131Z" fill="#fff" fill-rule="evenodd"/></g></mask></defs><g id="fd70b3ea-0257-4771-ad4e-4bdadb0513ef" data-name="Layer 2"><g id="a1c87342-15a8-447a-9105-c3fcb52bcd58" data-name="Layer 1"><g id="bdaf9c15-d409-40c4-968c-e8e9dd8dde13" data-name="icon"><path id="b56b517b-ab0e-42a8-9c03-6601aeb912c3" data-name="Combined-Shape" d="M50.27291,2.92286q.00613.09709.00613.19444V58.8828A3.13347,3.13347,0,0,1,47.12954,62q-.07068,0-.14131-.00314L4.94876,60.1281a3.13319,3.13319,0,0,1-3.006-2.99715L.00226,5.95477a3.12956,3.12956,0,0,1,2.95082-3.228L37.427.594l-.29973,7.02679a.46113.46113,0,0,0,.05176.23227l.04335.06807a.47305.47305,0,0,0,.65825.08945h0L40.63826,5.9402l2.32913,1.816a.47309.47309,0,0,0,.30713.09944.467.467,0,0,0,.45314-.48095h0L43.467.22,46.93308.00618A3.13833,3.13833,0,0,1,50.27291,2.92286Z" fill="#ff4785"/><g mask="url(#a79871bc-3bf5-49b1-8dae-35d17e4d3766)"><path id="bf563310-514e-4bef-949a-87228239adaa" data-name="S" d="M29.403,23.36865c0,1.21277,8.25372.63152,9.36171-.22037,0-8.25869-4.47734-12.5985-12.67611-12.5985S13.29619,14.95711,13.29619,21.56812c0,11.51416,15.69976,11.73452,15.69976,18.015a2.49565,2.49565,0,0,1-2.79107,2.80967c-2.50033,0-3.48884-1.26384-3.37254-5.561,0-.93221-9.53615-1.22284-9.82689,0C12.26512,47.24531,18.82018,50.249,26.32117,50.249c7.26841,0,12.96685-3.83451,12.96685-10.77606,0-12.34053-15.93236-12.01-15.93236-18.12516,0-2.47913,1.86072-2.80968,2.96551-2.80968C27.48412,18.53807,29.57742,18.741,29.403,23.36865Z" fill="#fff"/></g><g mask="url(#a79871bc-3bf5-49b1-8dae-35d17e4d3766)"><path id="e885deee-7f27-4bb6-9d4f-a8567dc2f75c" data-name="bookmark" d="M37.12727,7.62079,37.42768.59158,43.46746.21829l.2602,7.15639a.467.467,0,0,1-.45314.481.47309.47309,0,0,1-.30713-.09944l-2.32913-1.816L37.88063,8.01058a.47305.47305,0,0,1-.65825-.08945A.46175.46175,0,0,1,37.12727,7.62079Z" fill="#fff"/></g></g></g></g></svg>
